!!!!SEGMENT: pl-wn--sd-xvi-qu-273--119_gomolka-mikolaj--szczesliwi-ktorzy-sie-panskim-zakonem-sprawuja.krn
!!!cenid: 15xx:324
!!!COM: Gomółka, Mikołaj
!!!COM-rismid: pe30013343
!!!CDT: ~1535->1591/04/30
!!!CNT: Polish
!!!GTL: Melodiae na psalterz polski
!!!OTL: CXIX. Szczęśliwi, którzy się Pańskim zakonem sprawują
!!!ONB: Beati immaculati in via:
!!!PDT: 1580
!!!AGN: Sacred
!!!SMS-siglum: PL-Wn
!!!SMS-shelfmark: SD XVI.Qu.273
!!!SMS-shelfwork: 119 G
!!!NIFC-rismid:
!!!ONB-nifc: Melodiae na psalterz polski
**kern	**text	**text	**text	**kern	**text	**text	**text	**kern	**text	**text	**text	**kern	**text	**text	**text
*part4	*part4	*part4	*part4	*part3	*part3	*part3	*part3	*part2	*part2	*part2	*part2	*part1	*part1	*part1	*part1
*staff4	*staff4	*staff4	*staff4	*staff3	*staff3	*staff3	*staff3	*staff2	*staff2	*staff2	*staff2	*staff1	*staff1	*staff1	*staff1
*clefF4	*	*	*	*clefC3	*	*	*	*clefC3	*	*	*	*clefC1	*	*	*
*k[]	*	*	*	*k[]	*	*	*	*k[]	*	*	*	*k[]	*	*	*
*d:	*	*	*	*d:	*	*	*	*d:	*	*	*	*d:	*	*	*
*M4/2	*	*	*	*M4/2	*	*	*	*M4/2	*	*	*	*M4/2	*	*	*
*met(C|)	*	*	*	*met(C|)	*	*	*	*met(C|)	*	*	*	*met(C|)	*	*	*
*>[A,A,B]	*	*	*	*>[A,A,B]	*	*	*	*>[A,A,B]	*	*	*	*>[A,A,B]	*	*	*
*>A	*	*	*	*>A	*	*	*	*>A	*	*	*	*>A	*	*	*
=1-	=1-	=1-	=1-	=1-	=1-	=1-	=1-	=1-	=1-	=1-	=1-	=1-	=1-	=1-	=1-
1D\	SƷcʒe-	Nie-	.	1d\	SƷcʒe-	Nie	.	1f\	SƷcʒe-	Nie-	.	1a\	SƷcʒe-	Nie	.
2D/	-śli-	máſʒ	.	2d\	-śli-	máſʒ	.	2f\	-śli-	-máſʒ	.	2a\	-śli-	máſʒ	.
2D/	-wi,	.	.	2A/	-wi,	.	.	2f\	-wi,	.	.	2a\	-wi	.	.
=2-	=2-	=2-	=2-	=2-	=2-	=2-	=2-	=2-	=2-	=2-	=2-	=2-	=2-	=2-	=2-
2AA/	któ-	grʒé-	.	2A/	.	grʒé-	.	2.e\	któ-	grʒé-	.	2cc\	.	grʒé-	.
2E\	.	-chu	.	2G#/X	któ-	.	.	.	.	.	.	2b\	któ-	.	.
.	.	.	.	.	.	.	.	4d\	-rʒy	-chu,	.	.	.	.	.
2AA/	-rʒy	.	.	2A/	-rʒy	-chu,	.	2c#X/	ſye	kę-	.	2a\	-rʒy	-chu,	.
2AA/	ſye	kędy	.	2A/	ſye	kę-	.	2c#/	.	-dy	.	2e/	ſye	kę-	.
=3-	=3-	=3-	=3-	=3-	=3-	=3-	=3-	=3-	=3-	=3-	=3-	=3-	=3-	=3-	=3-
2.D/	páń-	páń-	.	2.A/	páń-	-dy	.	2.d\	páń-	páń-	.	2.f/	páń-	-dy	.
4D/	-ſk(im)	(-skie)	.	4G/	-ſ(kim)	páń-	.	4d\	-ſk(im)	(-skie)	.	4f/	-ſk(im)	páń-	.
2D/	ʒa-	prá-	.	4A/	.	(-skie)	.	2d\	ʒa-	prá(wa)	.	2f/	ʒa-	(-skie)	.
.	.	.	.	4B/	ʒa-	prá-	.	.	.	.	.	.	.	.	.
2C/	-ko-	(-wa)	.	1c\	-ko(nem)	(-wa)	.	2G/	-ko(nem)	u-	.	2e/	-ko-	prá-	.
=4-	=4-	=4-	=4-	=4-	=4-	=4-	=4-	=4-	=4-	=4-	=4-	=4-	=4-	=4-	=4-
1F\	(-nem)	uwa-	.	.	.	.	.	1A/	ſprá-	-wa-	.	2c/	(-nem)	(-wa)	.
.	.	.	.	4B/	ſprá-	u-	.	.	.	.	.	2d/	ſprá-	u-	.
.	.	.	.	4A/	(-wu-	-wa-	.	.	.	.	.	.	.	.	.
2E\	ſprá-	-ʒ̇o-	.	2G#/X	-ją)	-ʒ̇o-	.	2B/	(-wują)	-ʒ̇o-	.	2e/	(-wu-	-waʒ̇o-	.
1E\	(-wują)	(-no)	.	1B/	Któ-	(-no)	.	1e\	Któ-	(-no)	.	1g\	-ją)	(-no)	.
=5-	=5-	=5-	=5-	=5-	=5-	=5-	=5-	=5-	=5-	=5-	=5-	=5-	=5-	=5-	=5-
.	.	.	.	.	.	.	.	.	.	.	.	.	.	.	.
2D/	Któ-	Wo-	.	2d\	.	Wo-	.	2f\	.	Wo-	.	2a\	Któ-	Wo-	.
1C/	-rʒy	-la	.	1e\	-rʒy	-la	.	1g\	-rʒy	-la	.	1cc\	-rʒy	-la	.
=6-	=6-	=6-	=6-	=6-	=6-	=6-	=6-	=6-	=6-	=6-	=6-	=6-	=6-	=6-	=6-
2GG/	pá-	two-	.	2d\	.	.	.	2g\	pá-	two-	.	2b\	pá-	two-	.
2C/	-ná	(-ja)	.	2e\	pá-	two-	.	2g\	-ná	(-ia)	.	2cc\	-ná	(-ja)	.
2D/	y	pá-	.	4d\	-ná	(-ja)	.	2f\	y	pá-	.	2a\	y	pá-	.
.	.	.	.	4c\	y	pá-	.	.	.	.	.	.	.	.	.
!!LO:PB:g=original
2F\	wyro	-nie á-	.	4B/	wy-	-nie	.	2d\	wyro-	-nie á-	.	2a\	wyro-	-nie á-	.
.	.	.	.	4A/	-ro-	á-	.	.	.	.	.	.	.	.	.
=7-	=7-	=7-	=7-	=7-	=7-	=7-	=7-	=7-	=7-	=7-	=7-	=7-	=7-	=7-	=7-
2E\	ków	-by	.	2B/	-ków	-by	.	2e\	-ków	-by	.	2g/	-ków	-by	.
1AA/	.	pil-	.	1A/	.	pil-	.	1e\	.	pil-	.	1cc\	.	pil-	.
2E\	iego	(-nie)	.	2G#/X	ie-	(-nie)	.	2e\	ie-	-nie	.	2b\	ie-	(-nie)	.
=8-	=8-	=8-	=8-	=8-	=8-	=8-	=8-	=8-	=8-	=8-	=8-	=8-	=8-	=8-	=8-
2.F\	.	ich	.	2.A/	-go	.	.	2c/	-go	ich	.	2a\	-go	ich	.
.	.	.	.	.	.	.	.	2f\	náś-	.	.	1a\	ná-	ſtrʒe-	.
4G\	ná-	ſtrʒe-	.	4B/	ná-	ich	.	.	.	.	.	.	.	.	.
2A\	-ślá-	-ʒ̇o-	.	2c/	-ślá-	ſtrʒe-	.	2.e\	-lá-	ſtrʒe-	.	.	.	.	.
2E\	-duią.	-no.	.	2B/	-du-	-ʒ̇o-	.	.	.	.	.	2g/	-ślá-	-ʒ̇o-	.
.	.	.	.	.	.	.	.	4d\	-du-	-ʒ̇o-	.	.	.	.	.
=9-	=9-	=9-	=9-	=9-	=9-	=9-	=9-	=9-	=9-	=9-	=9-	=9-	=9-	=9-	=9-
1AA/	.	.	.	1A/	-ią.	-no.	.	1c#\X	-ią.	-no.	.	1a\	-duią.	-no.	.
*>B	*	*	*	*>B	*	*	*	*>B	*	*	*	*>B	*	*	*
=:|!	=:|!	=:|!	=:|!	=:|!	=:|!	=:|!	=:|!	=:|!	=:|!	=:|!	=:|!	=:|!	=:|!	=:|!	=:|!
2.C/	.	Day	.	2.G/	.	Day	.	2.e\	.	Day	.	2.g/	.	Day	.
4C/	.	bo-	.	4G/	.	.	.	4e\	.	.	.	4g/	.	bo-	.
2G\	.	-ʒ̇e	.	2B/	.	bo-	.	2d\	.	bo-	.	2g/	.	-ʒ̇e,	.
2A\	.	ábych	.	2c/	.	-ʒ̇e	.	2c\	.	-ʒ̇e,	.	2e/	.	á-	.
=1010-	=10-	=10-	=10-	=10-	=10-	=10-	=10-	=10-	=10-	=10	=10--	=10-	=10-	=10-	=10-
2F\	.	.	.	2c/	.	á-	.	2e\	.	á-	.	2a\	.	-bych	.
2G\	.	u-	.	2B/	.	.	.	2d\	.	-bych	.	4g/	.	.	.
.	.	.	.	.	.	.	.	.	.	.	.	4f/	.	u-	.
2C/	.	-miał	.	2c/	.	-bych	.	2e\	.	.	.	2e/	.	-miał	.
2D/	.	.	.	2A/	.	.	.	4d\	.	u-	.	2f#/X	.	ſtrʒédʒ	.
.	.	.	.	.	.	.	.	4c\	.	-miał	.	.	.	.	.
=11-	=11-	=11-	=11-	=11-	=11-	=11-	=11-	=11-	=11-	=11-	=11-	=11-	=11-	=11-	=11-
2GG/	.	.	.	2G/	.	u-	.	2B/	.	.	.	2g/	.	.	.
2G\	.	ſtrʒédʒ	.	2d\	.	-miał	.	2g\	.	ſtrʒédʒ	.	1b\	.	.	.
2E\	.	.	.	4e\	.	.	.	2g\	.	.	.	.	.	.	.
.	.	.	.	4d\	.	ſtrʒédʒ	.	.	.	.	.	.	.	.	.
4A\	.	.	.	4c/	.	.	.	2e\	.	.	.	2cc\	.	t(w)é-	.
4G\	.	twé-	.	4B/	.	.	.	.	.	.	.	.	.	.	.
=12-	=12-	=12-	=12-	=12-	=12-	=12-	=12-	=12-	=12-	=12-	=12-	=12-	=12-	=12-	=12-
2F\	.	(-go)	.	2c/	.	twé-	.	2f\	.	.	.	4a\	.	(-go)	.
.	.	.	.	.	.	.	.	.	.	.	.	4b\	.	.	.
2F\	.	roſ-	.	4f\	.	(-go)	.	2c\	.	twé-	.	1cc\	.	roſ-	.
.	.	.	.	4e\	.	.	.	.	.	.	.	.	.	.	.
2G\	.	-ka-	.	4d\	.	roſ-	.	2.g\	.	(-go)	.	.	.	.	.
.	.	.	.	4c\	.	-ka-	.	.	.	.	.	.	.	.	.
2GG/	.	-ʒá-	.	2d\	.	-ʒá-	.	.	.	.	.	2b\	.	-kaʒá-	.
.	.	.	.	.	.	.	.	4f\	.	roſkaʒá-	.	.	.	.	.
!!LO:PB:g=original
=13-	=13-	=13-	=13-	=13-	=13-	=13-	=13-	=13-	=13-	=13-	=13-	=13-	=13-	=13-	=13-
2C/	.	-niá,	.	2c\	.	-niá,	.	2e\	.	-niá,	.	2cc\	.	-niá,	.
4c\	.	.	.	4e\	.	.	.	2g\	.	.	.	1cc\	.	.	.
4B\	.	Do-	.	4d\	.	.	.	.	.	.	.	.	.	.	.
2A\	.	-bra	.	2c/	.	Do-	.	4f\	.	Do-	.	.	.	.	.
.	.	.	.	.	.	.	.	4e\	.	-bra	.	.	.	.	.
2G\	.	mo-	.	2G/	.	-bra	.	1e\	.	.	.	2b\	.	Dobra	.
=14-	=14-	=14-	=14-	=14-	=14-	=14-	=14-	=14-	=14-	=14-	=14-	=14-	=14-	=14-	=14-
1F\	.	-iá.	.	4A/	.	.	.	.	.	.	.	1a\	.	mo-	.
.	.	.	.	4G/	.	mo-	.	.	.	.	.	.	.	.	.
.	.	.	.	4A/	.	-iá,	.	2d\	.	mo-	.	.	.	.	.
.	.	.	.	4B/	.	.	.	.	.	.	.	.	.	.	.
2E\	.	.	.	2.c/	.	będę	.	2e\	.	-iá,	.	2g/	.	-iá,	.
4A\	.	bę-	.	.	.	.	.	2e\	.	będę	.	1a\	.	bę-	.
4G\	.	-dę li	.	4B/	.	li	.	.	.	.	.	.	.	.	.
=15-	=15-	=15-	=15-	=15-	=15-	=15-	=15-	=15-	=15-	=15-	=15-	=15-	=15-	=15-	=15-
2F\	.	ʒ̇ył	.	4A/	.	ʒ̇ył	.	2f\	.	li	.	.	.	.	.
.	.	.	.	4B/	.	.	.	.	.	.	.	.	.	.	.
2E\	.	.	.	1c\	.	we-	.	2c/	.	ʒ̇ył	.	2g/	.	-dę li	.
1D\	.	we	.	.	.	.	.	1d\	.	we-	.	1f/	.	ʒ̇ył	.
.	.	.	.	2B/	.	-dle	.	.	.	.	.	.	.	.	.
=16-	=16-	=16-	=16-	=16-	=16-	=16-	=16-	=16-	=16-	=16-	=16-	=16-	=16-	=16-	=16-
2C/	.	dle	.	2c/	.	.	.	2G/	.	-dle	.	2e/	.	we-	.
1C/	.	twé-	.	1c\	.	twé-	.	1e\	.	.	.	1g\	.	-dle	.
2G\	.	-go	.	2B/	.	.	.	2d\	.	twé-	.	2g/	.	twé-	.
=17-	=17-	=17-	=17-	=17-	=17-	=17-	=17-	=17-	=17-	=17-	=17-	=17-	=17-	=17-	=17-
2A\	.	.	.	2c/	.	-go	.	4A/	.	-go	.	2e/	.	-go	.
.	.	.	.	.	.	.	.	4B/	.	.	.	.	.	.	.
2F\	.	ʒdá-	.	2A/	.	ʒdá-	.	2c/	.	ʒdá-	.	2f/	.	ʒdá-	.
1G\	.	.	.	4B/	.	.	.	1G/	.	-nia.	.	1d/	.	-nia.	.
.	.	.	.	2c/	.	-nia.	.	.	.	.	.	.	.	.	.
.	.	.	.	4B/	.	.	.	.	.	.	.	.	.	.	.
=18-	=18-	=18-	=18-	=18-	=18-	=18-	=18-	=18-	=18-	=18-	=18-	=18-	=18-	=18-	=18-
1C/	.	-nia	.	1c\	.	.	.	1G/	.	.	.	1e/	.	.	.
2r	.	.	.	2r	.	.	.	2r	.	.	.	2r	.	.	.
4c\	.	.	.	4e\	.	Ná-	We-	2g\	.	Ná-	We-	2cc\	.	Ná-	We-
4B\	.	.	.	4d\	.	-ucʒ	-dla	.	.	.	.	.	.	.	.
=19-	=19-	=19-	=19-	=19-	=19-	=19-	=19-	=19-	=19-	=19-	=19-	=19-	=19-	=19-	=19-
4A\	.	Ná-	We-	4c/	.	.	.	2.a\	.	-ucʒ	-dla	2cc\	.	-ucʒ	-dla
4G\	.	-ucʒ	-dla	4B/	.	mię	tych	.	.	.	.	.	.	.	.
4F\	.	.	.	2A/	.	.	.	.	.	.	.	2cc\	.	mię	tych
4E\	.	mię	tych	.	.	.	.	4g\	.	mię	tych	.	.	.	.
!!LO:PB:g=original
4D/	.	praw	ia	4B/	.	praw	ia	4f\	.	praw	ia	2dd\	.	praw	ia
4C/	.	.	ʒ̇yć	2c\	.	.	ʒ̇yć	4e\	.	.	ʒ̇yć	.	.	.	.
2D/	.	ſwo-	chcę,	.	.	.	.	2f\	.	ſwo-	chcę,	2dd\	.	.	ʒ̇yć
.	.	.	.	4B/	.	ſwo-	chcę,	.	.	.	.	.	.	.	.
=20-	=20-	=20-	=20-	=20-	=20-	=20-	=20-	=20-	=20-	=20-	=20-	=20-	=20-	=20-	=20-
2C/	.	-ich,	.	2c/	.	-ich,	.	2g\	.	-ich,	.	2.ee\	.	ſwo-	chcę,
4c\	.	a	tyl-	1e\	.	a	tylko	2g\	.	a	tyl-	.	.	.	.
4B\	.	ia	-ko	.	.	.	.	.	.	.	.	4dd\	.	-ich,	tyl-
2.A\	.	niech	niech	.	.	.	.	2a\	.	ia	-ko	2cc\	.	a	-ko
.	.	.	.	2e\	.	ia	niech	2a\	.	niech	niech	2ee\	.	ia	niech
4G\	.	to-	po-	.	.	.	.	.	.	.	.	.	.	.	.
=21-	=21-	=21-	=21-	=21-	=21-	=21-	=21-	=21-	=21-	=21-	=21-	=21-	=21-	=21-	=21-
2F\	.	-bie	-moc	2.f\	.	niech	.	2a\	.	to-	.	2dd\	.	niech	.
2F\	.	dʒ́ię-	.	.	.	.	.	2a\	.	-bie	po-	2cc\	.	to-	po-
.	.	.	.	4e\	.	to-	po-	.	.	.	.	.	.	.	.
2G\	.	-ku-	twą	4d\	.	-bie	-moc	2.g\	.	.	-moc	2cc\	.	-bie	-moc
.	.	.	.	4c/	.	dʒ́ię-	twą	.	.	.	.	.	.	.	.
2G\	.	-ię	cʒuię.	2d\	.	-kuię,	cʒu-	.	.	.	.	2b\	.	dʒ́ię-	twą
.	.	.	.	.	.	.	.	4f\	.	dʒ́ięku-	twą	.	.	.	.
=22-	=22-	=22-	=22-	=22-	=22-	=22-	=22-	=22-	=22-	=22-	=22-	=22-	=22-	=22-	=22-
000C/	.	.	.	000c\	.	.	-ię.	000e\	.	-ię,	cʒuię.	000cc\	.	-kuię,	cʒuię.
==-	==-	==-	==-	==-	==-	==-	==-	==-	==-	==-	==-	==-	==-	==-	==-
*-	*-	*-	*-	*-	*-	*-	*-	*-	*-	*-	*-	*-	*-	*-	*-
!!!RDF**kern: l = terminal long
!!!system-decoration: s1,s2,s3,s4
!!!ENC: Leszek Kubiak
!!!END: data 2020-02-19
!!!URL-scan: https://polona.pl/item/melodiae-na-psalterz-polski,Nzk3MTM4ODQ/275 Scan on Polona
!!!IIIF: https://polona.pl/iiif/item/Nzk3MTM4ODQ/manifest.json
